F1 Grump/assets/track outlines/Miami - White_1.svg

<svg xmlns="http://www.w3.org/2000/svg" viewBox="0 0 4461.65 3425.31"><defs><style>.cls-1{fill:#fff;}.cls-2{font-size:12px;font-family:TitilliumWeb-Regular, Titillium Web;letter-spacing:-0.01em;}.cls-3{letter-spacing:0em;}.cls-4{letter-spacing:-0.01em;}</style></defs><title>Miami - White_1</title><g id="Layer_2" data-name="Layer 2"><g id="Layer_1-2" data-name="Layer 1"><path class="cls-1" d="M1574.84,2541.32V2191.86H1645l99,295.43,99-295.43h70.19v349.46H1874.3V2233.27h-7.06L1765.73,2528.7H1722.3l-101.51-295.43h-7.07v308.05Z"/><path class="cls-1" d="M1999,2541.32V2191.86h38.88v349.46Z"/><path class="cls-1" d="M2092.46,2541.32l95.95-349.46h84.84l95.95,349.46h-38.38l-25.25-89.89H2156.09l-25.25,89.89Zm125.24-316.13-53,191.4H2297l-53-191.4Z"/><path class="cls-1" d="M2424.24,2541.32V2191.86h70.19l99,295.43,99-295.43h70.2v349.46H2723.7V2233.27h-7.07l-101.5,295.43H2571.7l-101.51-295.43h-7.07v308.05Z"/><path class="cls-1" d="M2848.44,2541.32V2191.86h38.88v349.46Z"/><path class="cls-1" d="M2365.81,1783.16c-127.6,0-218.72-30.18-273.78-48.38-8-2.66-15.27-5.08-21.91-7.14-43.75-13.62-131.3-55-201.66-88.19-19.72-9.3-37.66-17.78-52.14-24.45-49.15-22.64-130.63-49.78-241.84-48.82-14,0-95.43,1.57-198.58,3.56-209,4-525.07,10-597.05,9.28-88.62-.73-244.24-41.46-299.41-63.41-47.72-19-83.73-30.24-180.38-27.12-31.34,1-43.72,4.18-56.81,7.52-19.91,5.09-40.42,10.4-103.34,9.19C65.51,1504.28,0,1404.5,0,1326.51c0-96.74,33.13-137.4,68.2-180.43,105.31-130,286.53-131.5,322-130.45,109,2.59,172.05,63.63,188.79,82.26,60.59,67.5,93.95,91.29,111.25,99.36,34,15.79,83,21.65,131.08,15.65,34.67-4.33,77.85-37.72,106.42-59.82l8.45-6.52c39.4-30.33,63.16-48.62,139.82-66.52,72.15-17.43,168.23-3,233.43,35.29,53.14,31.54,602.22,356.25,602.22,356.25.8.48,99.26,57.13,195.54,60,17.12.47,32.74,1.13,47.32,1.75,81.26,3.45,126,5.35,238.41-35.06,130.2-47.13,166-116.57,175.37-144.24,11-32.85,12.12-79.29,13.54-138.08l.49-19.48c2.15-82.27,23.72-112.46,44.56-141.65,19.44-27.84,55.23-49.61,86.8-68.82,7.56-4.6,14.67-8.9,20.73-12.89,23.49-15.09,40.08-42.93,40.87-54.8-1.16-7.94-23-39-80.3-73.3-62.21-36.84-445.67-270.56-449.52-272.91l-.08,0c-4.3-2.62-430.1-263.46-495.08-302-71.1-42.19-138.41-68.8-200.07-79.05-45.63-7.36-177.38-11-246.65,5.32C1232,213.18,1155,247.52,1080.86,295.64c-42.22,27.39-94.7,56.23-184.36,51.75-83.47-4.22-111.81-15.28-180.14-57-82.21-50.22-182.72-122.19-194.79-179.91-5.05-24.36,2.25-52.16,19.07-72.62,15.63-19,46.37-41,103.87-37.47,241.35,14.51,2237.14,95,2377.41,97.5,70.78,1.89,385.9,13.93,690.67,25.58,314.93,12,640.57,24.47,664.57,24.47,30.24,0,48.09,14.18,57.72,26.08,15.53,19.17,21.6,47.58,16.61,78-5.21,29.84-31.06,139.5-44.56,180.35-6.13,18.5-3,20.89,9.82,27.11,15.05,7.3,35.88,19.89,42.79,44.92,7.53,27.25-7.18,50.85-12,58.62-2.41,3.94-8.64,16-15.2,28.82-12.07,23.46-28.58,55.61-43.75,80.57-33.71,55.44-96.22,72.67-121.52,77.51-21.83,4.17-66.85,4.36-128.12,4.17-21.07-.06-41-.12-52.09.26-38.84,1.33-68.11,40.4-68.11,90.88,0,29.18,13,54.82,39.83,78.39,27,23.9,42.3,31.27,65.45,42.41l4.9,2.38c1,.48,100.67,49.58,96.83,119-2.8,50.88-35.58,73.41-70.26,97.25l-2.87,2c-58,40.06-328.71,178.51-461.48,238.6-95,43-361.34,140.09-555.82,211-79.84,29.1-148.8,54.25-191.3,70.29-180.72,68.23-504.45,75.82-567.52,76.65-3.59,0-7.16.07-10.7.07m-787-290.72c120.88,0,211.36,29.89,266.21,55.16,14.62,6.74,32.77,15.3,52.7,24.71,64.81,30.6,153.57,72.52,192.71,84.7,7,2.18,14.68,4.71,23.09,7.5,55.9,18.5,140.29,46.5,262.14,44.86,168.69-2.21,412.45-22.46,544.27-72.24,42.88-16.17,112-41.38,192.06-70.57,193.44-70.52,458.35-167.11,551-209,139-62.91,400.11-197.6,450.62-232.45l2.94-2c33.21-22.83,37.9-27.69,38.58-40-1.86-9.43-29.38-35-56-47.9l-4.8-2.31c-25.3-12.21-47.14-22.74-81.44-53.06-43-37.85-64.87-83.18-64.87-134.65,0-89.64,60-161.92,136.52-164.55,12.33-.42,32-.36,54.68-.31,39,.11,98,.31,115.12-3,12.6-2.4,55.21-12.72,74.48-44.43,13.79-22.68,29.6-53.46,41.16-75.93,7.06-13.77,12.44-24.22,16.36-31-46.59-22.87-63.46-65.71-46.31-117.65,12.39-37.45,37.08-142.13,41.79-169.17,1.41-8.51.23-15.2-.83-17.33-.3.06-1.57-.17-3.78-.17-25.3,0-337.07-11.92-667.18-24.54-304.57-11.63-619.5-23.67-689.58-25.55C2880.29,169.12,882,88.49,640.41,74c-21.19-1.32-37.89,2.77-45.43,11.17-4.55,5-4.19,9.85-4.18,9.89,4.08,16.12,56.9,67.94,161.37,131.76,59,36,76.7,43.39,147.76,47,69.34,3.51,107.41-17.24,143.5-40.66,80.81-52.44,165.33-90,244.47-108.64,76.09-18,214.88-15.68,273.3-6.26,70.25,11.68,145.6,41.23,224.13,87.84,65.12,38.67,488.39,297.93,495.83,302.49,3.88,2.35,386.94,235.84,448.89,272.53,36.31,21.71,120,78.85,115.81,142.36-2.93,43.94-40.34,90.64-74,112.3-6.39,4.19-14.16,8.92-22.48,14-23,14-54.54,33.17-65.48,48.84-18.35,25.69-29.29,41-30.84,100l-.48,19.34c-1.58,65.21-2.83,116.73-17.51,160.56-15.87,47-65.38,133.94-219,189.55-125.14,45-180.6,42.6-264.47,39.06-14.28-.61-29.57-1.26-46.39-1.73-114.11-3.43-223.78-66.83-228.39-69.52-.15-.09-549.31-324.85-602.31-356.3-43-25.21-119.65-42.81-182.78-27.57-62.35,14.55-77.31,26.07-113.49,53.93l-8.34,6.43c-36.65,28.34-86.85,67.15-140.18,73.82-28.9,3.62-103.2,8.76-168.4-21.54-34.34-16-78.18-54.06-134.07-116.31-24.68-27.46-74.1-57.38-138.9-58.93-18.32-.59-179.86-2.08-266.1,104.37-31,38-51.45,63.14-51.45,132.83,0,45.94,42.89,104.65,69.19,105,53.85,1,69.18-2.91,85.39-7.06,15.33-3.9,32.7-8.34,71.48-9.61,100.21-3.24,146.88,7.7,207.86,31.93C555.48,1467,703,1504.68,779.53,1505.3c71,.9,386.5-5.25,595.05-9.26,107.58-2.08,185.29-3.58,199.71-3.58,1.48,0,3,0,4.48,0"/><text class="cls-2" transform="translate(2785.02 3421.89)">L<tspan class="cls-3" x="5.69" y="0">o</tspan><tspan class="cls-4" x="12.02" y="0">r</tspan><tspan class="cls-3" x="16.06" y="0">em ipsum</tspan></text></g></g></svg>

<svg width="4462" height="1783" viewBox="0 0 4462 1783" fill="none" xmlns="http://www.w3.org/2000/svg">
<g clip-path="url(#clip0_13_770)">
<path d="M2365.81 1783.16C2238.21 1783.16 2147.09 1752.98 2092.03 1734.78C2084.03 1732.12 2076.76 1729.7 2070.12 1727.64C2026.37 1714.02 1938.82 1672.64 1868.46 1639.45C1848.74 1630.15 1830.8 1621.67 1816.32 1615C1767.17 1592.36 1685.69 1565.22 1574.48 1566.18C1560.48 1566.18 1479.05 1567.75 1375.9 1569.74C1166.9 1573.74 850.83 1579.74 778.85 1579.02C690.23 1578.29 534.61 1537.56 479.44 1515.61C431.72 1496.61 395.71 1485.37 299.06 1488.49C267.72 1489.49 255.34 1492.67 242.25 1496.01C222.34 1501.1 201.83 1506.41 138.91 1505.2C65.51 1504.28 0 1404.5 0 1326.51C0 1229.77 33.13 1189.11 68.2 1146.08C173.51 1016.08 354.73 1014.58 390.2 1015.63C499.2 1018.22 562.25 1079.26 578.99 1097.89C639.58 1165.39 672.94 1189.18 690.24 1197.25C724.24 1213.04 773.24 1218.9 821.32 1212.9C855.99 1208.57 899.17 1175.18 927.74 1153.08L936.19 1146.56C975.59 1116.23 999.35 1097.94 1076.01 1080.04C1148.16 1062.61 1244.24 1077.04 1309.44 1115.33C1362.58 1146.87 1911.66 1471.58 1911.66 1471.58C1912.46 1472.06 2010.92 1528.71 2107.2 1531.58C2124.32 1532.05 2139.94 1532.71 2154.52 1533.33C2235.78 1536.78 2280.52 1538.68 2392.93 1498.27C2523.13 1451.14 2558.93 1381.7 2568.3 1354.03C2579.3 1321.18 2580.42 1274.74 2581.84 1215.95L2582.33 1196.47C2584.48 1114.2 2606.05 1084.01 2626.89 1054.82C2646.33 1026.98 2682.12 1005.21 2713.69 986C2721.25 981.4 2728.36 977.1 2734.42 973.11C2757.91 958.02 2774.5 930.18 2775.29 918.31C2774.13 910.37 2752.29 879.31 2694.99 845.01C2632.78 808.17 2249.32 574.45 2245.47 572.1H2245.39C2241.09 569.48 1815.29 308.64 1750.31 270.1C1679.21 227.91 1611.9 201.3 1550.24 191.05C1504.61 183.69 1372.86 180.05 1303.59 196.37C1232 213.18 1155 247.52 1080.86 295.64C1038.64 323.03 986.16 351.87 896.5 347.39C813.03 343.17 784.69 332.11 716.36 290.39C634.15 240.17 533.64 168.2 521.57 110.48C516.52 86.12 523.82 58.32 540.64 37.86C556.27 18.86 587.01 -3.14 644.51 0.390002C885.86 14.9 2881.65 95.39 3021.92 97.89C3092.7 99.78 3407.82 111.82 3712.59 123.47C4027.52 135.47 4353.16 147.94 4377.16 147.94C4407.4 147.94 4425.25 162.12 4434.88 174.02C4450.41 193.19 4456.48 221.6 4451.49 252.02C4446.28 281.86 4420.43 391.52 4406.93 432.37C4400.8 450.87 4403.93 453.26 4416.75 459.48C4431.8 466.78 4452.63 479.37 4459.54 504.4C4467.07 531.65 4452.36 555.25 4447.54 563.02C4445.13 566.96 4438.9 579.02 4432.34 591.84C4420.27 615.3 4403.76 647.45 4388.59 672.41C4354.88 727.85 4292.37 745.08 4267.07 749.92C4245.24 754.09 4200.22 754.28 4138.95 754.09C4117.88 754.03 4097.95 753.97 4086.86 754.35C4048.02 755.68 4018.75 794.75 4018.75 845.23C4018.75 874.41 4031.75 900.05 4058.58 923.62C4085.58 947.52 4100.88 954.89 4124.03 966.03L4128.93 968.41C4129.93 968.89 4229.6 1017.99 4225.76 1087.41C4222.96 1138.29 4190.18 1160.82 4155.5 1184.66L4152.63 1186.66C4094.63 1226.72 3823.92 1365.17 3691.15 1425.26C3596.15 1468.26 3329.81 1565.35 3135.33 1636.26C3055.49 1665.36 2986.53 1690.51 2944.03 1706.55C2763.31 1774.78 2439.58 1782.37 2376.51 1783.2C2372.92 1783.2 2369.35 1783.27 2365.81 1783.27M1578.81 1492.55C1699.69 1492.55 1790.17 1522.44 1845.02 1547.71C1859.64 1554.45 1877.79 1563.01 1897.72 1572.42C1962.53 1603.02 2051.29 1644.94 2090.43 1657.12C2097.43 1659.3 2105.11 1661.83 2113.52 1664.62C2169.42 1683.12 2253.81 1711.12 2375.66 1709.48C2544.35 1707.27 2788.11 1687.02 2919.93 1637.24C2962.81 1621.07 3031.93 1595.86 3111.99 1566.67C3305.43 1496.15 3570.34 1399.56 3662.99 1357.67C3801.99 1294.76 4063.1 1160.07 4113.61 1125.22L4116.55 1123.22C4149.76 1100.39 4154.45 1095.53 4155.13 1083.22C4153.27 1073.79 4125.75 1048.22 4099.13 1035.32L4094.33 1033.01C4069.03 1020.8 4047.19 1010.27 4012.89 979.95C3969.89 942.1 3948.02 896.77 3948.02 845.3C3948.02 755.66 4008.02 683.38 4084.54 680.75C4096.87 680.33 4116.54 680.39 4139.22 680.44C4178.22 680.55 4237.22 680.75 4254.34 677.44C4266.94 675.04 4309.55 664.72 4328.82 633.01C4342.61 610.33 4358.42 579.55 4369.98 557.08C4377.04 543.31 4382.42 532.86 4386.34 526.08C4339.75 503.21 4322.88 460.37 4340.03 408.43C4352.42 370.98 4377.11 266.3 4381.82 239.26C4383.23 230.75 4382.05 224.06 4380.99 221.93C4380.69 221.99 4379.42 221.76 4377.21 221.76C4351.91 221.76 4040.14 209.84 3710.03 197.22C3405.46 185.59 3090.53 173.55 3020.45 171.67C2880.29 169.12 882 88.49 640.41 74C619.22 72.68 602.52 76.77 594.98 85.17C590.43 90.17 590.79 95.02 590.8 95.06C594.88 111.18 647.7 163 752.17 226.82C811.17 262.82 828.87 270.21 899.93 273.82C969.27 277.33 1007.34 256.58 1043.43 233.16C1124.24 180.72 1208.76 143.16 1287.9 124.52C1363.99 106.52 1502.78 108.84 1561.2 118.26C1631.45 129.94 1706.8 159.49 1785.33 206.1C1850.45 244.77 2273.72 504.03 2281.16 508.59C2285.04 510.94 2668.1 744.43 2730.05 781.12C2766.36 802.83 2850.05 859.97 2845.86 923.48C2842.93 967.42 2805.52 1014.12 2771.86 1035.78C2765.47 1039.97 2757.7 1044.7 2749.38 1049.78C2726.38 1063.78 2694.84 1082.95 2683.9 1098.62C2665.55 1124.31 2654.61 1139.62 2653.06 1198.62L2652.58 1217.96C2651 1283.17 2649.75 1334.69 2635.07 1378.52C2619.2 1425.52 2569.69 1512.46 2416.07 1568.07C2290.93 1613.07 2235.47 1610.67 2151.6 1607.13C2137.32 1606.52 2122.03 1605.87 2105.21 1605.4C1991.1 1601.97 1881.43 1538.57 1876.82 1535.88C1876.67 1535.79 1327.51 1211.03 1274.51 1179.58C1231.51 1154.37 1154.86 1136.77 1091.73 1152.01C1029.38 1166.56 1014.42 1178.08 978.24 1205.94L969.9 1212.37C933.25 1240.71 883.05 1279.52 829.72 1286.19C800.82 1289.81 726.52 1294.95 661.32 1264.65C626.98 1248.65 583.14 1210.59 527.25 1148.34C502.57 1120.88 453.15 1090.96 388.35 1089.41C370.03 1088.82 208.49 1087.33 122.25 1193.78C91.25 1231.78 70.8 1256.92 70.8 1326.61C70.8 1372.55 113.69 1431.26 139.99 1431.61C193.84 1432.61 209.17 1428.7 225.38 1424.55C240.71 1420.65 258.08 1416.21 296.86 1414.94C397.07 1411.7 443.74 1422.64 504.72 1446.87C555.48 1467 703 1504.68 779.53 1505.3C850.53 1506.2 1166.03 1500.05 1374.58 1496.04C1482.16 1493.96 1559.87 1492.46 1574.29 1492.46C1575.77 1492.46 1577.29 1492.46 1578.77 1492.46" fill="white"/>
</g>
<defs>
<clipPath id="clip0_13_770">
<rect width="4462" height="1783" fill="white"/>
</clipPath>
</defs>
</svg>
